X:1
T: Good Hearted Glasgow
C:
R:Jig
Q:180
K:A
M:6/8
L:1/16
|:e2|e2d2c2 e4f2|e2d2A2 A6|B2G2E2 B4c2|d2c2B2 G2F2E2|
e2d2c2 e4f2|e2c2A2 A4e2|d2B2G2 E2F2G2|A6 A4:|
|:e2|f2d2f2 a4f2|e2c2A2 A6|B2G2E2 B4e2|f2e2c2 e6|
f2d2f2 a4f2|e2c2A2 e6|d2B2G2 E2F2G2|A6 A4:|
